!!!OTL@@DE: Lorelei
!!!COM: Silcher, Friedrich
!!!ODT: 1837
!!!OMD: Andante
!!!LYR: Heine, Heinrich
!!!LDT: 1822
!!!OCL: Erk, Ludwig
!!!GCO: Deutscher Liederschatz, Band 1
**kern	**kern	**kern
*staff3	*staff2	*staff1
*Ipiano	*Ipiano	*Ivox
*clefF4	*clefG2	*clefG2
*k[f#c#]	*k[f#c#]	*k[f#c#]
*D:	*D:	*D:
*M6/8	*M6/8	*M6/8
*MM92	*MM92	*MM92
8r	8r	8a/
=1	=1	=1
2.DD/ 2.D/	(8F#/ 8A/L	8.a\L
.	8d/	.
.	.	16b\Jk
.	8f#/J)	8a\
.	(8G/ 8B/L	8dd\L
.	8d/	8cc#\J
.	8g/J)	8b\
=2	=2	=2
4D\	(8F#/ 8A/L	4.a/
.	8d/	.
8r	8f#/J)	.
4GG/	(8B/L	4g/
.	8e/	.
8r	8g/J)	8g/
=3	=3	=3
4AA/	(8A/L	4f#/
.	8d/	.
8r	8f#/J)	8f#/
4AA/	(8c#/ 8e/L	8e/L
.	8B/ 8d/	8d/J
8r	8c#/) 8e/J	8e/
=4	=4	=4
4.D\	(8A/L	[4.f#/
.	8d/	.
.	8f#/J)	.
4r	(8A/L	8f#/]
.	8d/	8r
8r	8f#/J)	8a/
=5	=5	=5
2.DD/ 2.D/	(8F#/ 8A/L	8.a/
.	8d/	.
.	.	16b\
.	8f#/J)	8a/
.	(8G/ 8B/L	8dd\L
.	8d/	8cc#\J
.	8g/J)	8b\
=6	=6	=6
4D\	(8F#/ 8A/L	4.a/
.	8d/	.
8r	8f#/J)	.
4GG/	(8B/L	4g/
.	8e/	.
8r	8g/J)	8g/
=7	=7	=7
4AA/	(8A/L	4f#/
.	8d/	.
8r	8f#/J)	8f#/
4AAA/ 4AA/	(8G/L	8a/
.	8A/	8g/
8r	8c#/) 8e/J	8e/
=8	=8	=8
[4.DD/	(8F#/L	[4.d/
.	8A/	.
.	8d/J)	.
4DD/]	4F#/	8d/]
.	.	8r
8r	8r	8f#/
=9	=9	=9
2.AAA\ 2.AA\	8c#/L	8.e/L
.	8A/	.
.	.	16f#/Jk
.	8E/J	8e/
.	8c#/L	8a/
.	8A/	8e/
.	8E/J	8e/
=10	=10	=10
4AA/	8e/L	4.cc#\
.	8c#/	.
8r	8A/J	.
4D\	8f#/L	4b\
.	8B/	.
8r	8d/J	8b\
=11	=11	=11
4E\	8c#/L	4a/
.	8A/	.
8r	8c#/J	8a/
4EE/	(8B/L	8g#/L
.	8c#/	8a/J
8r	8d/J)	8b/
=12	=12	=12
2.AA/	8c#/L	[4.a/
.	(8c#/ 8e/	.
.	8d/ 8f#/J	.
.	8e/ 8g/L	4a/]
.	8d/ 8f#/	.
.	8c#/) 8e/J	8a/
=13	=13	=13
2.DD/ 2.D/	8F#/ 8A/L	8.a/
.	8d/	.
.	.	16b\
.	8f#/J	8a/
.	8G/ 8B/L	8dd\L
.	8d/	8cc#\J
.	8g/J	8b\
=14	=14	=14
4D\	8F#/ 8A/L	(4a/
.	8d/	.
8r	8f#/J	8ff#\)
4GG/	8G/L	4ee\
.	8B/	.
8r	8e/ 8g/J	8ee\
=15	=15	=15
4AA/	8F#/L	4dd\
.	8A/	.
8r	8d/ 8f#/J	8dd\
4AAA/ 4AA/	8G/L	8cc#\L
.	8A/	8b\J
8r	8c#/ 8e/J	8cc#\
=16	=16	=16
*^	*	*
4r	[4.DD\	8F#/ 8d/L	[4.dd\
.	.	8A/	.
8r	.	8F#/J	.
4D/	4DD\]	8r	8dd\]
.	.	8r	8r
*v	*v	*	*
==	==	==
*-	*-	*-
!!!ENC: Craig Stuart Sapp
!!!END: 2004/06/03/
!!!EFL: 061/651
